X: 93
T: No_53_Dream_of_Buffalo_(b).krn
N: Derived from No_53_Dream_of_Buffalo_(b).krn
%%abc-version 2.0
%%abcx-abcm2ps-target-version 5.9.1 (29 Sep 2008)
%%abc-creator hum2abc beta
%%abcx-conversion-date 2019/03/15 08:35:45
%%humdrum-veritas 1656856156
%%humdrum-veritas-data 4064341150
%%linebreak <none>
%%barnumbers 0
L: 1/8
M: 3/4
K: Bb clef=bass
[K:clef=bass][M:3/4]z4z z/ C/ | 
C4CB, | 
B,B, G, z B,C | 
B,4B,G, ||  
[M:4/4]F,2F,4z2 ||  
[M:3/4]B,4B,F, | 
G,F, D, z F,G, | 
F,4F,D, ||  
[M:4/4]C,2B,,4z2 ||  
[M:3/4]C,4C,B,, | 
B,,B,, G,, z C,C, | 
B,,4B,,G,, | 
F,,2F,,4 |]  



